chrome/icons/chrome-close.svg

<svg width="16" height="16" viewBox="0 0 16 16" fill="none" xmlns="http://www.w3.org/2000/svg">
<g clip-path="url(#clip0_52_1153)">
<path d="M8 9.13281L1.36719 15.7656C1.21094 15.9219 1.02344 16 0.804688 16C0.57552 16 0.384114 15.9231 0.230469 15.7695C0.076823 15.6159 0 15.4245 0 15.1953C0 14.9766 0.078125 14.7891 0.234375 14.6328L6.86719 8L0.234375 1.36719C0.078125 1.21094 0 1.02083 0 0.796875C0 0.6875 0.0208333 0.583334 0.0625 0.484375C0.104167 0.385417 0.161458 0.300781 0.234375 0.230469C0.307292 0.160156 0.39323 0.104167 0.492188 0.0625C0.591145 0.0208339 0.695312 0 0.804688 0C1.02344 0 1.21094 0.078125 1.36719 0.234375L8 6.86719L14.6328 0.234375C14.7891 0.078125 14.9792 0 15.2031 0C15.3125 0 15.4154 0.0208339 15.5117 0.0625C15.6081 0.104167 15.6927 0.161459 15.7656 0.234375C15.8386 0.307292 15.8958 0.391928 15.9375 0.488281C15.9792 0.584636 16 0.6875 16 0.796875C16 1.02083 15.9219 1.21094 15.7656 1.36719L9.13281 8L15.7656 14.6328C15.9219 14.7891 16 14.9766 16 15.1953C16 15.3047 15.9792 15.4089 15.9375 15.5078C15.8958 15.6068 15.8398 15.6927 15.7695 15.7656C15.6992 15.8386 15.6146 15.8958 15.5156 15.9375C15.4167 15.9792 15.3125 16 15.2031 16C14.9792 16 14.7891 15.9219 14.6328 15.7656L8 9.13281Z" fill="context-fill" fill-opacity="context-fill-opacity"/>
</g>
<defs>
<clipPath id="clip0_52_1153">
<rect width="16" height="16" fill="white"/>
</clipPath>
</defs>
</svg>

<svg xmlns="http://www.w3.org/2000/svg" width="16" height="16" fill="none" viewBox="0 0 16 16"><g clip-path="url(#a)"><path fill="context-fill" fill-opacity="context-fill-opacity" d="m8 9.133-6.633 6.633A.77.77 0 0 1 .805 16a.78.78 0 0 1-.575-.23.78.78 0 0 1-.23-.575q0-.328.234-.562L6.867 8 .234 1.367A.78.78 0 0 1 0 .797.8.8 0 0 1 .234.23.83.83 0 0 1 .804 0q.33 0 .563.234L8 6.867 14.633.234a.78.78 0 0 1 .57-.234q.164 0 .309.063a.8.8 0 0 1 .425.425Q16 .634 16 .797a.78.78 0 0 1-.234.57L9.133 8l6.633 6.633a.77.77 0 0 1 .234.562q0 .165-.062.313a.8.8 0 0 1-.168.258.796.796 0 0 1-.566.234.78.78 0 0 1-.571-.234z"/></g><defs><clipPath id="a"><path d="M0 0h16v16H0z"/></clipPath></defs></svg>
